X:1
T:Piano Sonata No. 14 in C♯ minor (“Moonlight”)
T:My Darling, for the love we share of music and everything else in life, I dedicate this piece to you. Every time I listen to it, I think fondly of the times we have shared. Even when physically apart, the conversations allow our minds to mingle. Your warm embrace, the passion with which you play, the smile that warms every room, and the laughter with which you brighten every day are with me as I listen. I will love you, always.
T:Piano Sonata No. 14 – “Moonlight” – Op. 27, No. 2
T:Movement I
T:Ludwig van Beethoven
T:Piano Sonata No. 14 – “Moonlight” – Op. 27, No. 2
T:Movement II
T:Ludwig van Beethoven
T:Piano Sonata No. 14 – “Moonlight” – Op. 27, No. 2
T:Movement III
T:Ludwig van Beethoven
T:OpenScore (CC0)
T:OpenScore (CC0)
T:OpenScore (CC0)
T:OpenScore (CC0)
T:OpenScore (CC0)
T:OpenScore (CC0)
T:OpenScore (CC0)
T:OpenScore (CC0)
T:OpenScore (CC0)
T:OpenScore (CC0)
T:OpenScore (CC0)
T:OpenScore (CC0)
T:OpenScore (CC0)
T:OpenScore (CC0)
T:OpenScore (CC0)
T:OpenScore (CC0)
T:OpenScore (CC0)
T:OpenScore (CC0)
T:OpenScore (CC0)
C:Ludwig van Beethoven
Z:OpenScore (CC0)
%%score { ( 1 3 ) | ( 2 4 ) }
L:1/8
Q:1/4=60
M:2/2
K:E
V:1 treble nm="Piano" snm="Pno."
V:3 treble 
V:2 bass 
V:4 bass 
V:1
"^Adagio sostenuto""^Si deve suonare tutto questo pezzo delicatissimamente e senza sordini."!pp! (3(G,CE (3G,CE (3G,CE (3G,CE | %1
 (3G,)CE (3G,CE (3G,CE (3G,CE | (3A,CE (3A,CE (3A,=DF (3A,DF | (3G,^B,F (3G,CE (3G,C^D (3F,B,D | %4
 z4 z2!pp! G>G | G6 G>G | (G4 A4 | G4 F2 B2 | E2) z2 z4 | z4 z2 =G>G | =G6 G>G | (=G6 ^F2) | %12
 (F4 =G2 E2 | F4) (F4 | B,2) z2 z2 (B2 |!<(! =c6!<)! ^A2 |!pp! B6) (B2 |!<(! =c6!<)! ^A2 | %18
!pp! B4) (B4 | B4 =A4) | (=G4 F4) | C4 C2 (C2 |[I:staff +1] F,2)[I:staff -1] z2 z2 c>c | c6 c>c | %24
"_cresc." (c4 ^B2 c2 | d6) (d2 | e4!mf!"_dim." d2 c2 | %27
!p!!<(! (3^B)^B,D (G2!<)!!mf!!>(! =A2 F2)!>)! |!p! (3z!<(! ^B,D G,2!<)!!mf!!>(! A,2 F,2!>)! | %29
!p!!<(![I:staff +1] (3E,[I:staff -1]EG (c2!<)!!mf!!>(! e2 c2)!>)! | %30
!p!!<(! (3z[I:staff +1] E,G, (C2!<)!!mf!!>(! E2 C2)!>)! | %31
!mp! (3(D,A,F,[I:staff -1] (3^B,A,D (3B,FD (3AF^B) | %32
[I:staff +1] (3(E,CG,[I:staff -1] (3ECG (3EcG (3ecG) | (3(C^^FE (3^AFc (3Aec (3^^fe^a) | %34
 (3(^F^B=A (3dB^f (3d=af (3^bad' | (3^bfa (3df^B (3dAB (3FAD | %36
 (3F^B,D[K:bass] (3A,^B,F, (3A,D,F, (3C,F,A, | (3^B,,)F,G, (3A,G,F, (3D,F,A, (3C,F,A, | %38
 (3^B,,F,G, (3A,G,F, (3=D,F,A, (3C,F,A, |"_dim." (3^B,,F,G, (3A,G,F, (3C,E,C (3C,E,C | %40
 (3D,A,C (3D,A,C (3D,G,^B, (3D,F,B, |!pp! x2[K:treble] x2 x2!pp! G>G | G6 G>G | (G4 A4 | G4 F2 B2 | %45
 E2) z2 z2 B>B | B6 B>B |"_cresc." (B4 ^B2 c2 |!p! d4 e4 | =d4 ^B4 | c6) (c2 |!<(! =d6!<)! ^B2 | %52
!p! c6) (c2 |!<(! =d6!<)! ^B2 |!pp! c4) (c4 | =B6) (B2 | A2 A2 G2 G2 |"_cresc." (F4) G2 A2 | %58
!p! G4) (G4 |!pp! C2) x2 x4 | (3G,DF (3G,DF (3G,DF (3G,DF |!<(! (3(G,EC (3GEc (3Gec (3gec!<)! | %62
!mp!!>(! x2 x2[K:bass] x2 ^B,2!>)! |!pp!!<(! (3[E,C])[K:treble](EC (3GEc (3Gec (3gec!<)! | %64
!mp!!>(! x2 x2[K:bass] x2 ^B,2!>)! |!p!"_dim." (3[E,C])(G,C (3ECG,) (3z (E,G, (3CG,E,) | %66
 (3z C,E, (3G,E,C, z4 |!pp! z4 [E,G,C]4 | !fermata![E,G,C]8 |] %69
[K:Db][M:3/4][K:treble][Q:1/4=210]"^Allegretto"!p!"^La prima parte senza repetizione" ([Ad]2 | %70
 [Ac]4 [=GB]2 | .[Ae]2) z2 .[Fd]2 | .[Ac]2 z2 .[=GB]2 | .A2 z2 ([d_g]2 | [df]4 [ce]2 | %75
 .[da]2) z2 .[Bg]2 | .[df]2 z2 .[ce]2 | .d2 z2 ([Dd]2- | [Dd]2 [Cc]2) ([B,B-]2 | B2 e2) (d2- | %80
 d2 c2) (B2- | B2 A2) ([_G_g]2- | [Gg]2 [Ff]2) ([Ee-]2 | e2 a2) (g2- | g2 f2) (e2- | e2 d2) |: %86
 [Fd]2 | [Fd]4 [Fd]2 | (d2 c2) _c2 | _c4 c2 | (_c2 B2) (B2 |"_cresc." =c4 d2 |!>(! e4) (G2-!>)! | %93
!p! G2 F2 BG | [DF]2 [CE]2) ([Dd]2 | [Cc]4 [B,B]2 | .[Ee]2) z2 ([Fd-]2 | d2 c2) (B2- | %98
 B2 A2) ([_G_g]2 | [Ff]4 [Ee]2 | .[Aa]2) z2 ([Gg]2- | [Gg]2 [Ff]2) .[Ee]2 | %102
 .[Aa]2 z2"_cresc." ([Gg]2- | [Gg]2 [Ff]2) ([Bb]2- | [Bb]2 [Aa]2) z2 |!p! (C4 ED | %106
 [F,D]2) z2!fine! ::"^Trio." [F,F]2- | [F,F]4 [G,G]2- | [G,G]4 ([Ee]2- | [Ee]2 [Cc]2) .[A,A]2 | %111
 ([Dd]2 [Ff]2) [F,F]2- | [F,F]4 [G,G]2- | [G,G]4 ([Gg]2- | [Gg]2 [Bb]2) .[Cc]2 | ([Ee]2 [Dd]2) :: %116
!pp! [Ff]2- | [Ff]4 [B,B]2- | [B,B]4 [Ee]2- | [Ee]4 [A,A]2- | [A,A]4 !>![Dd]2- | [Dd]4 [G,G]2- | %122
 [G,G]4 ([F,F]2- | [F,F]2 [A,A]2 [_C_c]2- | [Cc]2 [B,B]2) [Dd]2- | [Dd]4[K:bass] [G,G]2- | %126
 [G,G]4 [F,F]2- | [F,F]4 [=E,=E]2- | [E,E]4 [F,F]2- |"_cresc." [F,F]4 [G,G]2- | [G,G]4 ([F,F]2- | %131
!p! [F,F]2 [G,G]2) .[C,C]2 | .[D,D]2 z2!D.C.! :| %133
[K:E][M:4/4][K:bass][Q:1/4=155]"^Presto agitato"!p! z/ (G,,/C,/E,/ G,/C,/E,/G,/ C/E,/G,/C/[K:treble] E/G,/C/E/ |: %134
 G/C/E/G/ c/E/G/c/ e/G/c/e/ .[Gceg]).[Gceg] | %135
[K:bass]!p! z/ (G,,/^B,,/D,/ G,/B,,/D,/G,/ ^B,/D,/G,/B,/[K:treble] D/G,/^B,/D/ | %136
 G/^B,/D/G/ ^B/D/G/B/ d/G/B/d/ .[GBdg]).[GBdg] | %137
[K:bass]!p! z/ (C,/^E,/G,/ C/E,/G,/C/[K:treble] ^E/G,/C/E/ G/C/E/G/ | %138
 c/^E/G/c/ ^e/G/c/e/ g/c/e/g/ .[cegc']).[cegc'] | %139
[K:bass]!p! z/ (C,/F,/A,/[K:treble] .C/)(C/F/A/ .c/)(c/f/a/ .[cfc']).[cfc'] | %140
[K:bass]!p! z/ (C,/E,/^^F,/[K:treble] .C/)(C/E/^^F/ .c/)(c/e/^^f/ .[cfc']).[cfc'] | %141
!f! .[^Bg^b] (G/g/ G/g/^A/g/ B/g/c/g/ d/g/B/g/ | d/g/c/g/ f/g/e/g/ d/g/c/g/ ^B/g/=A/^^f/ | %143
 (G/)g/G/g/ G/g/^A/g/ ^B/g/c/g/ d/g/B/g/ | d/g/c/g/ f/g/e/g/ d/g/c/g/ ^B/g/=A/^^f/ | %145
 (G/)g/A/^^f/ G/g/A/f/ G/g/A/f/ G/g/A/f/ | .[Gg]2) !fermata!G,6 | %147
[K:bass]!p! z/ (G,,/C,/E,/ G,/C,/E,/G,/ C/E,/G,/C/[K:treble] E/G,/C/E/ | %148
 G/C/E/G/ c/E/G/c/ e/e/g/c'/ .[ee']).[ee'] | %149
[K:bass]!p! z/ (E,/^^F,/C/ E/F,/C/E/[K:treble] ^^F/C/E/F/ c/E/F/c/ | %150
 e/^^F/c/e/ ^^f/c/e/f/ c'/e/f/c'/ .[ee']).[ee'] | %151
[K:bass]!p!"_cresc." z/ (D,/^A,/C/ D/A,/C/D/[K:treble] ^A/C/D/A/ c/D/A/c/ | %152
 d/^A/c/d/ ^a/c/d/a/ c'/a/d/c/ a/d/c/A/ |!p! .B2) (!>!d4 B>G | %154
{^^FG^A} G2 ^^F2-!<(! F)(F!<)!!mp!!>(!d>F!>)! |!p! ^A2 G2-!<(! G)(G!<)!!mp!!>(!d>G!>)! | %156
!p! B2 ^A2-!<(! A)(A!<)!!mp!!>(!d>A)!>)! |!p!"_cresc." .B [dd']2 [dd']- [dd'].[dd'].[Bb].[Gg] | %158
 .[Gg] [^^F^^f]2 [Ff]- [Ff].[Ff].[dd'].[Ff] | .[^A^a] [Gg]2 [Gg]- [Gg].[Gg].[dd'].[Gg] | %160
 .[Bb] [^A^a]2 [Aa]- [Aa].[Aa].[dd'].[Aa] | [^B^b]4 [cc']4 | (!trill(!T[^A^a]2{ga} [=B=b]6) | %163
 [Gg]4 [=A=a]4 | (!trill(!T[^^F^^f]2{^ef} [Gg]6) |!ff! [=Ace=a]4- [Acea]/!p!(e/f/g/ a/b/c'/b/ | %166
 a/e/f/g/ a/b/c'/b/ a/e/f/g/ a/b/c'/b/ |"_cresc." a/e/f/g/ a/b/c'/=d'/ e'/^d'/e'/d'/ e'/c'/b/a/ | %168
!p! g4) (!trill(!T^a4{ga} | .g2)!ff! [=A,CE=A]2- [A,CEA]/!p!(E/F/G/ A/B/c/B/ | %170
 A/E/F/G/ A/B/c/B/ A/E/F/G/ A/B/c/B/ |"_cresc." A/E/F/G/ A/B/c/B/ A/E/F/G/ A/B/c/B/ | %172
 A/E/F/G/ A/B/c/=d/ e/f/g/a/ b/c'/=d'/^d'/ |!f! [ee']4) [Gg]4 | [Bb]4 ([^^F,C^^F]4 | %175
 .[G,B,G])!p! .[DB].[DB].[DB] .[DB].[DB].[D^A].[DG] | %176
 .[D^^F] .[Fd].[Fd].[Fd] .[Fd].[Fd].[Gd].[^Ad] | .[Bd] .[DB].[DB].[DB] .[DB].[DB].[D^A].[DG] | %178
 .[D^^F] .[Fd].[Fd].[Fd] .[Fd].[Fd].[Gd].[^Ad] | .[Bd] .[Bd]([Bd][GB]) z .[ce]([ce][Gc]) | %180
 z .[Bd]([Bd][GB]) z .[^Ad]([Ad][^^FA]) | %181
 .[GB]!p!"_cresc." .[Bdb].[Bdb].[Bdb] .[Bdb].[Bdb].[^Ac^a].[GBg] | %182
 .[^^F^A^^f]!f! .[efe'].[efe'].[efe'] .[efe'].[efe'].[dfd'].[cfc'] | %183
 .[Bgb]!p!"_cresc." .[Bdb].[Bdb].[Bdb] .[Bdb].[Bdb].[^Ac^a].[GBg] | %184
 .[^^F^A^^f]!f! .[efe'].[efe'].[efe'] .[efe'].[efe'].[dfd'].[cfc'] | %185
 .[Bgb]!p! .[gb]([gb][bd']) z .[gc']([gc'][c'e']) | z .[gb]([gb][bd']) z .[^^f^a]([fa][ad']) | %187
 z"_cresc." .[db]([db][gd']) z .[c=a]([ca][ec']) | %188
 z .[Bg]([Bg][db])!f!"_dim." z .[^A^^f]([Af][c^a]) |!p! [Bg]2 z2 z2 (B>G | %190
 ^^F2) (.[CFd]2 .[CFd]2 .[CFd]2) |{B,G} d6 (b>g | ^^f2) (.[cfd']2 .[cfd']2 .[cfd']2) | %193
!-(!{Bg} d'4!-(!{c^^f} d'4 |{Bg} d'4{c^^f} d'4 | %195
"_cresc." (B,/G/D/G/ B,/G/D/G/ B,/G/D/G/ B,/G/D/G/ | ^B,/F/D/F/ B,/F/D/F/ B,/F/D/F/ B,/F/D/F/) |1 %197
[K:bass] .[E,G,CE]/(G,,/C,/E,/ G,/C,/E,/G,/ C/E,/G,/C/[K:treble] E/G,/C/E/) :|2 %198
[K:bass] .[^E,G,C^E]/(C,/E,/G,/ C/E,/G,/C/[K:treble] ^E/G,/C/E/ G/C/E/G/ || %199
 c/^E/G/c/ ^e/G/c/e/ g/c/e/g/ .[cegc']).[cegc'] | %200
[K:bass]!p! z/ (C,/^E,/G,/ C/E,/G,/C/[K:treble] ^E/G,/C/E/ G/C/E/G/ | %201
 c/^E/G/c/ ^e/G/c/e/ g/c/e/g/ .[cegc']).[cegc'] | %202
[K:bass]!p! z/ (C,/F,/A,/[K:treble] .C/)(C/F/A/ .c/)(c/f/a/ .[cfac']).[cfac'] | %203
[K:bass]!p! z/ (C,/G,/B,/[K:treble] .C/)(C/G/B/ .c/)(c/g/b/ .[cgbc']).[cgbc'] | %204
!p! .[cfac']2!p! (!>!c4 A>F |{^EFG} F2 ^E2-!<(! E)(E!<)!!mf!!>(!c>E!>)! | %206
!p! G2 F2-!<(! F)(F!<)!!mf!!>(!c>F!>)! |!p! A2 G2-!<(! G)(G!<)!!mf!!>(!c>G!>)! | %208
!p! (A/)c/A/c/ F/c/A/c/ F/c/A/c/ F/c/A/c/ | G/c/B/c/ G/c/B/c/ G/c/B/c/ G/c/B/c/ | %210
 F/)c/A/c/ F/c/A/c/ F/c/A/c/ F/c/A/c/ |"_cresc." F/=d/A/d/ F/d/A/d/ A/d/=c/d/ A/d/c/d/ | %212
 =G/!p!=d/B/d/ G/d/B/d/ G/d/B/d/ G/d/B/d/ | A/=d/=c/d/ A/d/c/d/ A/d/c/d/ A/d/c/d/ | %214
 =G/=d/B/d/ G/d/B/d/ G/d/B/d/ G/d/B/d/ | ^G/=d/B/d/ G/c/B/c/ G/c/B/c/ G/c/B/c/ | %216
 F/c/A/c/ F/c/A/c/ F/f/A/f/ F/f/A/f/ | F/f/[G^d]/f/ F/f/[Gd]/f/ F/f/[Gd]/f/ F/f/[Gd]/f/ | %218
 E/e/c/e/ E/e/c/e/ E/e/c/e/ E/e/c/e/ | D/d/c/d/ D/d/c/d/ D/d/c/d/ D/d/c/d/ | [D^Bd]2!p! (G4 AG | %221
 F2 GF E2 FE | D2 ED C2 DC |[I:staff +1] [D,F,^B,]4 [C,E,C]4 | %224
{^B,,G,}[I:staff -1] D2)"_cresc." g2- g.g.a.g | .f.[Acf].[Bdg].[Acf] .[GBe].[GBe].[Acf].[GBe] | %226
 .[FAd].[FAd].[GBe].[FAd]!mp! .[EGc].[EGc].[FAd].[EGc] |!p!!<(! [DF^B]4 [CEc]4!<)! | %228
!mf!!>(!{^B,F-} [Fd]6 [CEc]2!>)! |!p!!<(! (.[DF^B]2 .[DFB]2 .[CEc]2 .[CEc]2)!<)! | %230
!mf!!>(!{^B,F-} [Fd]6 ([CE]c)!>)! |!p!!<(! ([DF]^B)([DF]B) ([CE]c)([CE]c)!<)! | %232
!mf! ([^B,F]d)([B,F]d)"_dim." ([CE]c)([CE]c) |!p! [A,CDA]8 |!pp! [G,^B,DG]8 | %235
[K:bass] z/!p! (G,,/C,/E,/ G,/C,/E,/G,/ C/E,/G,/C/[K:treble] E/G,/C/E/ | %236
 G/C/E/G/ c/E/G/c/ e/G/c/e/ .[Gceg]).[Gceg] | %237
[K:bass]!p! z/ (G,,/^B,,/D,/ G,/B,,/D,/G,/ ^B,/D,/G,/B,/[K:treble] D/G,/^B,/D/ | %238
 G/^B,/D/G/ ^B/D/G/B/ d/G/B/d/ .[GBdg]).[GBdg] | %239
[K:bass]!p! z/ (C,/^E,/G,/ C/E,/G,/C/[K:treble] ^E/G,/C/E/ G/C/E/G/ | %240
 c/^E/G/c/ ^e/G/c/e/ g/c/e/g/ .[cegc']).[cegc'] | %241
[K:bass]!p! z/ (C,/F,/A,/[K:treble] .C/)(C/F/A/ .c/)(c/f/a/ .[cfc']).[cfc'] | %242
[K:bass]!p! z/ (C,/E,/^^F,/[K:treble] .C/)(C/E/^^F/ .c/)(c/e/^^f/ .[cfc']).[cfc'] | %243
!f! [^Bg^b] (G/g/ G/g/^A/g/ B/g/c/g/ d/g/B/g/ | d/g/c/g/ f/g/e/g/ d/g/c/g/ ^B/g/=A/^^f/ | %245
 (G/)g/G/g/ G/g/^A/g/ ^B/g/c/g/ d/g/B/g/ | d/g/c/g/ f/g/e/g/ d/g/c/g/ ^B/g/=A/^^f/ | %247
 G/)(g/A/^^f/ G/g/A/f/ G/g/A/f/ G/g/A/f/ | .[Gg]2) !fermata!G,6 |!p! z2 (G4 E>C | %250
{^B,CD} C2 ^B,2-!<(! B,)(B,!<)!!mf!!>(!G>B,!>)! |!p! D2 C2-!<(! C)(C!<)!!mf!!>(!G>C!>)! | %252
!p! E2 D2-!<(! D)(D!<)!!mf!!>(!G>D!>)! |!p! .E)"_cresc." [Gg]2 [Gg]- [Gg].[Gg].[Ee].[Cc] | %254
 .[Cc] [^B,^B]2 [B,B]- [B,B].[B,B].[Gg].[B,B] | .[Dd] [Cc]2 [Cc]- [Cc].[Cc].[Gg].[Cc] | %256
 .[Ee] [Dd]2 [Dd]- [Dd].[Dd].[Gg].[Dd] | [^E^e]4 [Ff]4 | (!trill(!T[Dd]2{cd} [=E=e]6) | %259
 [Cc]4 [=D=d]4 | (!trill(!T[^B,^B]2{^AB} [Cc]6) |!ff! [=DFA=d]4- [DFAd]/!p!(A/B/c/ d/e/f/e/ | %262
 =d/A/B/c/ d/e/f/e/ d/A/B/c/ d/e/f/e/ |"_cresc." =d/A/B/c/ d/e/f/=g/ a/^g/b/a/ =g/f/e/d/ | %264
!p! c4) (!trill(!T^d4{cd} | %265
 .c2)[K:bass]!ff! [=D,F,A,=D]2- [D,F,A,D]/!p!(A,/B,/C/[K:treble] =D/E/F/E/ | %266
 =D/A,/B,/C/ D/E/F/E/ D/A,/B,/C/ D/E/F/E/ |"_cresc." =D/A,/B,/C/ D/E/F/E/ D/A,/B,/C/ D/E/F/E/ | %268
 =D/A,/B,/C/ D/E/F/=G/ A/B/c/=d/ e/f/=g/^g/ |!f! [Aa]4) [Cc]4 | [Ee]4[K:bass] ([^B,,F,^B,]4 | %271
 [C,E,C])[K:treble]!p! .[G,E].[G,E].[G,E] .[G,E].[G,E].[G,D].[G,C] | %272
 .[G,^B,] .[B,G].[B,G].[B,G] .[B,G].[B,G].[CG].[DG] | %273
 .[EG] .[G,E].[G,E].[G,E] .[G,E].[G,E].[G,D].[G,C] | %274
 .[G,^B,] .[B,G].[B,G].[B,G] .[B,G].[B,G].[CG].[DG] | .[EG] .[EG]([EG][CE]) z .[FA]([FA][CF]) | %276
 z .[EG]([EG][CE]) z .[DG]([DG][^B,D]) | %277
!p! .[CE]"_cresc." .[EGe].[EGe].[EGe] .[EGe].[EGe].[DFd].[CEc] | %278
 .[^B,D^B]!f! .[Bd^b].[Bdb].[Bdb] .[Bdb].[Bdb].[cec'].[dfd'] | %279
!p! .[ege']"_cresc." .[EGe].[EGe].[EGe] .[EGe].[EGe].[DFd].[CEc] | %280
 .[^B,D^B]!f! .[Bd^b].[Bdb].[Bdb] .[Bdb].[Bdb].[cec'].[dfd'] | %281
 .[ege']!p! .[gc']([gc'][eg]) z .[ac']([ac'][fa]) | z .[eg]([eg][ce]) z .[dg]([dg][^Bd]) | %283
"_cresc." z .[cg]([cg][Ge]) z .[Af]([Af][F=d]) | z .[Ge]([Ge][Ec]) z .[F^d]([Fd][D^B]) | %285
!p! [Ec]2 z2 z2 (E>C | ^B,2) (.[F,B,G]2 .[F,B,G]2 .[F,B,G]2) |!-(!{E,C} G6 (e>c | %288
 ^B2) (.[FBg]2 .[FBg]2 .[FBg]2) |{Ec} g4{F^B} g4 |{Ec} g4{F^B} g4 | %291
[K:bass]"_cresc." (E,/C/G,/C/ E,/C/G,/C/ E,/C/G,/C/ E,/C/G,/C/ | %292
 [C,^E,]/C/G,/C/ [C,E,]/C/G,/C/ [C,E,]/C/G,/C/ [C,E,]/C/G,/C/ | %293
 .[C,F,A,C]/)(C,/F,/A,/ C/F,/A,/C/[K:treble] F/A,/C/F/ A/C/F/A/ | %294
 c/F/A/c/ f/A/c/f/ a/c/f/a/ .[cfac']).[cfac'] | %295
[K:bass]!p! z/ (C,/E,/G,/ C/E,/G,/C/[K:treble] E/G,/C/E/ G/C/E/G/ | %296
 c/E/G/c/ e/G/c/e/ g/c/e/g/ .[cegc']).[cegc'] | %297
[K:bass]!p! z C,/4-E,/4-^^F,/4-^A,/4- [C,E,F,A,C]2- [C,E,F,A,C][K:treble] C/4-E/4-^^F/4-^A/4- [CEFAc]2- | %298
 [CEFAc] c/4-e/4-^^f/4-^a/4- !fermata![cefac']6 | %299
[K:bass]!p! z =A,,/4-^B,,/4-D,/4-F,/4- [A,,B,,D,^F,=A,]2- [A,,B,,D,F,A,][K:treble] A,/4-^B,/4-D/4-F/4- [A,B,DFA]2- | %300
 [A,B,DFA]/A/-^B/-d/- !fermata![ABda]6 |[K:treble]!p! z/ (G/E/G/ C/G/E/G/ C/G/E/G/ C/G/E/G/ | %302
 D/G/F/G/ D/G/F/G/ D/!<(!G/F/G/!<)!!mp!!>(! D/G/F/G/!>)! | %303
!p! C/)G/E/G/ C/G/E/G/ C/!<(!G/E/G/!<)!!mf!!>(! C/G/E/G/!>)! | %304
!p! ^B,/G/F/G/ B,/G/F/G/ B,/!<(!G/F/G/!<)!!mf!!>(! B,/G/F/G/!>)! | .[CEG]2!p! ([Gg]4 [Ee]>[Cc] | %306
 [Cc]2 [^B,^B]2- [B,B])!<(!([B,B]!<)!!mp!!>(![Gg]>[B,B]!>)! | %307
!p! [Dd]2 [Cc]2- [Cc])!<(!([Cc]!<)!!mf!!>(![Gg]>[Cc]!>)! | %308
!p! [Ee]2 [Dd]2- [Dd])!<(!([Dd]!<)!!mf!!>(![Gg]>[Dd])!>)! | %309
!p!"_cresc." ([Ff][Ee]).[cc'].[Ee] ([Ff][^E^e]).[cc'].[Ee] | %310
 ([Gg][Ff]).[cc'].[Ff] ([Aa][Gg]).[cc'].[Gg] |!f! (3(afc (3AFC (3AFC[I:staff +1] (3A,F,C, | %312
 A,/F,/C,/A,,/ C,/F,/A,/C/[I:staff -1] F/A/c/f/ a/f/c/A/) | %313
 (3(af=d (3AF=D (3AFD[I:staff +1] (3A,F,=D, | %314
 A,/F,/=D,/A,,/ D,/F,/A,/=D/[I:staff -1] F/A/=d/f/ a/f/d/A/) | %315
!f! (3(c'^a^^f (3ec^A (3ecA ^^F/E/C/^A,/ | %316
 E/C/[I:staff +1]^A,/^^F,/ E,/C,/E,/F,/ (6:4:6A,/[I:staff -1]C/E/^^F/^A/c/ (6:4:6e/^^f/^a/c'/a/e/) | %317
 (3(e'c'g (3ecG (3ecG E/c/G/E/ | C/G/E/C/[I:staff +1] G,/E/C/G,/ E,/C/G,/E,/ C,/G,/E,/C,/ | %319
 (G,,/)A,,/^A,,/B,,/ ^B,,/C,/^^C,/D,/ E,/^E,/F,/^^F,/ G,/=A,/^A,/=B,/ | %320
[I:staff -1] ^B,/C/^^C/D/ (5:4:5E/^E/F/^^F/G/ (5:4:5A/^A/=B/^B/^c/ (3=d/^d/=e/ ^e/4^f/4^^f/4g/4 | %321
 (!trill(!Ta8) (33:8:30gfedfc^BdAGFAEDFC^B,D[I:staff +1]A,G,F,A,E,D,F,C,"_dim."^B,, (.D,2 .A,,2 .G,,2) | %322
[Q:1/4=75]"^Adagio"!p! (^^F,,8) | G,,8 |!p![Q:1/4=155]"^Tempo I" C,2)[I:staff -1] z2 z2 (E>C | %325
 ^B,2) (.[F,B,G]2 .[F,B,G]2 .[F,B,G]2) |{E,C} G6 (e>c | ^B2) (.[FBg]2 .[FBg]2 .[FBg]2) | %328
{Ec} g4{F^B} g4 |{Ec} g4{F^B} g4 |!f!{Dc} .g/(E/G/c/ e/G/c/e/ g/c/e/g/ c'/e/g/c'/ | %331
 e'/c'/g/e/ c'/g/e/c/ g/e/c/G/ e/c/G/E/ | c/G/E/C/ G/E/C/G,/[I:staff +1] E/C/G,/E,/ C/G,/E,/G,/ | %333
 C,2)[I:staff -1] z2!ff! .[cegc']2 z2 | .[CEGc]2 z2 z4 |] %335
V:2
 [C,,C,]8 |"^simile" [B,,,B,,]8 | ([A,,,A,,]4 [F,,,F,,]4 | [G,,,G,,]4) ([G,,,G,,]4 | [C,,G,,C,]8) | %5
 [^B,,,G,,^B,,]8 | ([C,,C,]4 [F,,,F,,]4 | [B,,,B,,]4 [B,,,B,,]4 | [E,,E,]8) | [E,,E,]8 | %10
 [=D,,=D,]8 | ([=C,,=C,]2 [B,,,B,,]2 [^A,,,^A,,]4) | ([B,,,B,,]4 E,,2 =G,,2 | F,,4) ([F,,,F,,]4 | %14
 [B,,,B,,]8-) | ([B,,,B,,]2 [E,,E,]2 [=G,,=G,]2 [E,,E,]2) | [B,,,B,,]8- | %17
 ([B,,,B,,]2 [E,,E,]2 [=G,,=G,]2 [E,,E,]2 | [B,,,B,,]4) ([^G,,,^G,,]4 | [^E,,,^E,,]4 [F,,,F,,]4) | %20
 ([B,,,B,,]4 [^B,,,^B,,]4) | C,,4 C,,4 | [F,,,C,,F,,]8 | [^E,,C,^E,]8 | %24
 ([F,,F,]4 [D,,D,]2 [C,,C,]2 | [^B,,,G,,^B,,]6) ([B,,,G,,B,,]2 | %26
 [C,,G,,C,]4) ([F,,,F,,]2 [^^F,,,^^F,,]2 | [G,,,G,,]8) | [G,,,G,,]8 | [G,,,G,,]8 | [G,,,G,,]8 | %31
 [G,,,G,,]8 | [G,,,G,,]8 | [G,,,G,,]8 | [G,,,G,,]8- | [G,,,G,,]8- | [G,,,G,,]8 | [G,,,G,,]8 | %38
 [G,,,G,,]8 | ([G,,,G,,]4 [A,,,A,,]4 | [F,,,F,,]4 [G,,,G,,]4) | [C,,G,,C,]8 | [^B,,,G,,^B,,]8 | %43
 ([C,,C,]4 [F,,,F,,]4 | [B,,,B,,]4 [B,,,B,,]4 | [E,,E,]8) | [D,,D,]8 | %47
 ([E,,E,]4 [D,,D,]2 [C,,C,]2 | [^B,,,G,,^B,,]4 [C,,G,,C,]4 | [F,,,F,,]4 [G,,,G,,]4 | [C,,C,]8-) | %51
 ([C,,C,]2 [F,,F,]2 [A,,A,]2 [F,,F,]2 | [C,,C,]8-) | ([C,,C,]2 [F,,F,]2 [A,,A,]2 [F,,F,]2 | %54
 [C,,C,]4) ([F,,,F,,]4 | [D,,D,]6) ([E,,E,]2 | [C,,C,]2 [D,,D,]2 [^B,,,^B,,]2 [C,,C,]2 | %57
 ([A,,,A,,]4) [G,,,G,,]2 [F,,,F,,]2 | [G,,,G,,]4) [G,,,G,,]4 | G,,6 G,,>G,, | G,,6 G,,>G,, | %61
 G,,6 G,,>G,, | G,,6 G,,>G,, | G,,6 G,,>G,, | G,,6 G,,>G,, | G,,4 C,4 | %66
 G,,4 (3G,,C,G,, (3E,,G,,E,, | C,,4 [C,,G,,C,]4 | %68
"_Attacca subito il seguente:" !fermata![C,,G,,C,]8 |][K:Db][M:3/4] (F2 | E4 D2 | %71
 .C2) z2 .[D,B,]2 | .[E,E]2 z2 .[E,D]2 | .[A,C]2 z2[K:treble] (B2 | A4 G2 | .F2) z2 .[G,E]2 | %76
 .[A,A]2 z2 .[A,G]2 | .[DF]2 z2[K:bass] ([F,A,]2 | [E,A,]4 [D,=G,]2 | .[C,C]2) z2 .[D,B,]2 | %80
 .[E,E]2 z2 .[E,D]2 | .[A,C]2 z2 ([B,D]2 | [A,D]4 [G,C]2 | .[F,F]2) z2 .[G,E]2 | %84
 .[A,A]2 z2 .[A,G]2 | .[DF]2 z2 |: (D2 | B,4 A,2 | =G,2 A,2) A,2 | (A,4 _G,2 | F,2 G,2) (G,2 | %91
 [E,A,]4 [D,A,]2 | [C,A,]6) | (A,4 G,E, | A,4) ([F,A,]2 | [E,A,]4 [D,=G,]2 | .[C,C]2) z2 .[D,B,]2 | %97
 .[E,E]2 z2 .[E,D]2 | .[A,C]2 z2 ([B,D]2 | [A,D]4 [G,C]2 | .[F,D]2) z2 ([B,D]2 | [A,D]4 [G,C]2 | %102
 .[F,D]2) z2 [B,D]2 | [A,D]4 (([=G,D-=E]2 | [A,DF]2)) z4 | ([A,,,A,,]6 | [D,,A,,]2) z2 :: z2 | %108
 A,,6- | A,,6- | A,,6- | A,,6 | A,,6- | A,,6- | A,,4 A,,2- | A,,4 :: z2 |!pp! ([=D,A,]6 | %118
 [_D,=G,]6 | [C,_G,]6 | [_C,F,]6 | D,6-) | D,6- | D,6- | D,6 | D,6- | D,6- | D,6- | D,6 | D,6- | %130
 D,6 | [A,,,A,,]4 .A,,2 | .D,,2 z2 :|[K:E][M:4/4] .C,,.G,,.C,,.G,, .C,,.G,,.C,,.G,, |: %134
 .C,,.G,,.C,,.G,, .C,,.G,,!ped!.[C,,C,].G,,!ped-up! | .^B,,,.G,,.B,,,.G,, .B,,,.G,,.B,,,.G,, | %136
 .^B,,,.G,,.B,,,.G,, .B,,,.G,,!ped!.[B,,,^B,,].G,,!ped-up! | %137
 .=B,,,.G,,.B,,,.G,, .B,,,.G,,.B,,,.G,, | .B,,,.G,,.B,,,.G,, .B,,,.G,,!ped!.[B,,,B,,]!ped-up!.G,, | %139
 .A,,,.A,,.A,,,.A,, .A,,,.A,,!ped!.A,,,.A,,!ped-up! | %140
 .A,,,.A,,.A,,,.A,, .A,,,.A,,!ped!.A,,,.A,,!ped-up! | .[G,,,G,,] (^B,B,C DEFD | FEAG FEDC | %143
 ^B,)(B,B,C DEFD | FEAG FEDC | .[G,^B,]).[G,C].[G,B,].[G,C] .[G,B,].[G,C].[G,B,].[G,C] | %146
 .[G,^B,]2 !fermata![G,,,G,,]6 | .C,,.G,,.C,,.G,, .C,,.G,,.C,,.G,, | %148
 .C,,.G,,.C,,.G,, .C,,.G,,!ped!.[C,,C,].G,,!ped-up! | .^A,,,.C,.^A,,.C, .A,,.C,.A,,.C, | %150
 .^A,,.C,.A,,.C, .A,,.C,!ped!.[^A,,,A,,].C,!ped-up! | .^^F,,,.D,.^^F,,.D, .F,,.D,.F,,.D, | %152
 .^^F,,.D,.F,,.D, .F,,.D,.F,,.D, | (G,,/D,/B,,/D,/ G,,/D,/B,,/D,/ G,,/D,/B,,/D,/ G,,/D,/B,,/D,/ | %154
 ^A,,/D,/C,/D,/ A,,/D,/C,/D,/ A,,/D,/C,/D,/ A,,/D,/C,/D,/ | !//-!B,,2) D,2 !//-!B,,2 D,2 | %156
 !//-!^^F,,2 D,2 !//-!F,,2 D,2 | G,,/D,/B,,/D,/ G,,/D,/B,,/D,/ G,,/D,/B,,/D,/ G,,/D,/B,,/D,/ | %158
 ^A,,/D,/C,/D,/ A,,/D,/C,/D,/ A,,/D,/C,/D,/ A,,/D,/C,/D,/ | !//-!B,,2 D,2 !//-!B,,2 D,2 | %160
 !//-!^^F,,2 D,2 !//-!F,,2 D,2 | ^F,,/D,/G,,/D,/ F,,/D,/G,,/D,/ E,,/C,/G,,/C,/ E,,/C,/G,,/C,/ | %162
 E,,/C,/F,,/C,/ D,,/B,,/F,,/B,,/ D,,/B,,/F,,/B,,/ D,,/B,,/F,,/B,,/ | %163
 =D,,/B,,/E,,/B,,/ D,,/B,,/E,,/B,,/ C,,/A,,/E,,/A,,/ C,,/A,,/E,,/A,,/ | %164
 C,,/^A,,/^D,,/A,,/ B,,,/G,,/D,,/G,,/ B,,,/G,,/D,,/G,,/ B,,,/G,,/D,,/G,,/ | %165
 [C,,E,,=A,,C,]4- [C,,E,,A,,C,]2 z2 |[K:treble] .[CEA]2 z2 .[CEA]2 z2 | %167
 [CEA]2 [CEA]2 [CEA]2 [CEA]2 | (D/B/G/B/ D/B/G/B/ D/c/^^F/c/ D/c/F/c/ | %169
 .[EGB]2)[K:bass] [C,,E,,=A,,C,]2- [C,,E,,A,,C,]2 z2 | z2 .[C,E,A,]2 z2 .[C,E,A,]2 | %171
 z [C,E,A,] z [C,E,A,] z [C,E,A,] z [C,E,A,] | [C,E,A,]2 z2 z4 | %173
 (C,/A,/E,/A,/ C,/A,/E,/A,/ ^^C,/B,/^E,/B,/ C,/B,/E,/B,/ | %174
 D,/B,/G,/B,/ D,/B,/G,/B,/ D,,/D,/^^C,/D,/ C,/D,/C,/D,/ | .G,,) .G,.G,.G, .G,.G,.^A,.B, | %176
 .[D,C] .[CD].[CD].[CD] .[CD].[CD].[B,D].[^A,D] | .[G,,G,] .G,.G,.G, .G,.G,.^A,.B, | %178
 .[D,C] .[CD].[CD].[CD] .[CD].[CD].[B,D].[^A,D] | .G,, .[G,B,]([G,B,][B,D]) .C, .[G,C]([G,C][CE]) | %180
 .D, .[G,B,]([G,B,][B,D]) .D, .[^^F,^A,]([F,A,][A,D]) | %181
 .[G,,,G,,] .[G,,D,].[G,,D,].[G,,D,] .[G,,D,].[G,,D,].[^A,,D,].[B,,D,] | %182
 .[D,,C,D,] .[D,C].[D,C].[D,C] .[D,C].[D,C].[D,B,].[D,^A,] | %183
 .[G,,,G,,] .[G,,D,].[G,,D,].[G,,D,] .[G,,D,].[G,,D,].[^A,,D,].[B,,D,] | %184
 .[D,,C,D,] .[D,C].[D,C].[D,C] .[D,C].[D,C].[D,B,].[D,^A,] | %185
 .[G,,G,] .[B,D]([B,D][G,B,]) .C, .[CE]([CE][G,C]) | %186
 .D, .[B,D]([B,D][G,B,]) .C, .[^A,D]([A,D][^^F,A,]) | %187
 B,,[K:treble] .[DG]([DG][B,D])[K:bass] .C,[K:treble] .[E=A]([EA][CE]) | %188
[K:bass] .D,[K:treble] .[DG]([DG][B,D])[K:bass] .D,[K:treble] .[C^^F]([CF][^A,C]) | %189
[K:bass] (G,,/G,/D,/G,/ G,,/G,/D,/G,/ G,,/G,/D,/G,/ G,,/G,/D,/G,/ | %190
 G,,/)^A,/D,/A,/ G,,/A,/D,/A,/ G,,/A,/D,/A,/ G,,/A,/D,/A,/ | %191
 G,,/G,/D,/G,/ G,,/G,/D,/G,/ G,,/G,/D,/G,/ G,,/G,/D,/G,/ | %192
 G,,/^A,/D,/A,/ G,,/A,/D,/A,/ G,,/A,/D,/A,/ G,,/A,/D,/A,/ | %193
 G,,/!-)!G,/D,/G,/ G,,/G,/D,/G,/ G,,/!-)!^A,/D,/A,/ G,,/A,/D,/A,/ | %194
 G,,/G,/D,/G,/ G,,/G,/D,/G,/ G,,/^A,/D,/A,/ G,,/A,/D,/A,/ | %195
 (G,,/G,/D,/G,/ G,,/G,/D,/G,/ G,,/G,/D,/G,/ G,,/G,/D,/G,/ | %196
 G,,/F,/D,/F,/ G,,/F,/D,/F,/ G,,/F,/D,/F,/ G,,/F,/D,/F,/) |1 .C,,.G,,.C,,.G,, .C,,.G,,.C,,.G,, :|2 %198
 .C,,.G,,.C,,.G,, .C,,.G,,.C,,.G,, || .C,,.G,,.C,,.G,, .C,,.G,,!ped!.[C,,C,].G,,!ped-up! | %200
 .=B,,,.G,,.B,,,.G,, .B,,,.G,,.B,,,.G,, | .B,,,.G,,.B,,,.G,, .B,,,.G,,!ped!.[B,,,B,,].G,,!ped-up! | %202
 .A,,,.A,,.A,,,.A,, .A,,,.A,,!ped!.A,,,.A,,!ped-up! | %203
 .^E,,,.^E,,.E,,,.E,, .E,,,.E,,!ped!.E,,,.E,,!ped-up! | %204
 [F,,,F,,]/(C/A,/C/ F,/C/A,/C/ F,/C/A,/C/ F,/C/A,/C/ | %205
 G,/C/B,/C/ G,/C/B,/C/ G,/C/B,/C/ G,/C/B,/C/ | A,/)C/A,/C/ A,/C/A,/C/ A,/C/A,/C/ A,/C/A,/C/ | %207
 ^E,/C/E,/C/ E,/C/E,/C/ E,/C/E,/C/ E,/C/E,/C/ | .F,2 (C4 A,>F, | %209
 F,2 ^E,2-!<(! E,)(E,!<)!!mf!!>(!C>!>)!E, |!p! G,2 F,2-!<(! F,)(F,!<)!!mf!!>(!C>F,)!>)! | %211
!p! .F,(F,=D>F,)!<(! .F,(F,!<)!!f!!>(!D>F,)!>)! | .=G,2 (=D,4 B,,>=G,, | %213
 =G,,2 F,,2-!<(! F,,)(F,,!<)!!mf!!>(!=D,>F,,!>)! | %214
!p! A,,2 =G,,2-!<(! G,,)(G,,!<)!!mf!!>(!=D,>F,,!>)! | %215
!p! F,,2 ^E,,2-!<(! E,,)(E,,!<)!!mf!!>(!C,>E,,!>)! |!p! .F,,)(F,,A,,F,, .=D,,)(D,,F,,D,, | %217
 ^B,,,4- B,,,)(B,,,^D,,B,,, | .C,,)(C,,E,,C,, .A,,,)(A,,,C,,A,,, | %219
 .F,,,)(F,,,A,,,F,,, .^^F,,,)(F,,,^A,,,F,,, | %220
 G,,,/)!p!G,,/G,,,/G,,/ G,,,/G,,/G,,,/G,,/ G,,,/G,,/G,,,/G,,/ G,,,/G,,/G,,,/G,,/ | %221
 G,,,/G,,/G,,,/G,,/ G,,,/G,,/G,,,/G,,/ G,,,/G,,/G,,,/G,,/ G,,,/G,,/G,,,/G,,/ | %222
 !//-!G,,,2 G,,2 !//-!G,,,2 G,,2 | !//-!G,,,2 G,,2 !//-!G,,,2 G,,2 | %224
 !//-!G,,,2 G,,2 !//-!G,,,2 G,,2 | !//-!G,,,2 G,,2 !//-!G,,,2 G,,2 | %226
 !//-!G,,,2 G,,2 !//-!G,,,2 G,,2 | !//-!G,,,2 G,,2 !//-!G,,,2 G,,2 | %228
 !//-!G,,,2 G,,2 !//-!G,,,2 G,,2 | !//-!G,,,2 G,,2 !//-!G,,,2 G,,2 | %230
 !//-!G,,,2 G,,2 !//-!G,,,2 G,,2 | !//-!G,,,2 G,,2 !//-!G,,,2 G,,2 | %232
 !//-!G,,,2 G,,2 !//-!A,,,2 A,,2 | [F,,,F,,]8 | [G,,,G,,]8 | .C,,.G,,.C,,.G,, .C,,.G,,.C,,.G,, | %236
 .C,,.G,,.C,,.G,, .C,,.G,,!ped!.[C,,C,].G,,!ped-up! | .^B,,,.G,,.B,,,.G,, .B,,,.G,,.B,,,.G,, | %238
 .^B,,,.G,,.B,,,.G,, .B,,,.G,,!ped!.[B,,,^B,,].G,,!ped-up! | %239
 .=B,,,.G,,.B,,,.G,, .B,,,.G,,.B,,,.G,, | .B,,,.G,,.B,,,.G,, .B,,,.G,,!ped!.[B,,,B,,].G,,!ped-up! | %241
 .A,,,.A,,.A,,,.A,, .A,,,.A,,!ped!.A,,,.A,,!ped-up! | %242
 .A,,,.A,,.A,,,.A,, .A,,,.A,,!ped!.A,,,.A,,!ped-up! | [G,,,G,,] (^B,B,C DEFD | FEAG FEDC | %245
 ^B,)(B,B,C DEFD | FEAG FEDC | .[G,^B,]).[G,C].[G,B,].[G,C] .[G,B,].[G,C].[G,B,].[G,C] | %248
 .[G,^B,]2 !fermata![G,,,G,,]6 | C,/G,/E,/G,/ C,/G,/E,/G,/ C,/G,/E,/G,/ C,/G,/E,/G,/ | %250
 D,/G,/F,/G,/ D,/G,/F,/G,/ D,/G,/F,/G,/ D,/G,/F,/G,/ | %251
 E,/G,/E,/G,/ E,/G,/E,/G,/ E,/G,/E,/G,/ E,/G,/E,/G,/ | %252
 ^B,,/G,/B,,/G,/ B,,/G,/B,,/G,/ B,,/G,/B,,/G,/ B,,/G,/B,,/G,/ | %253
 C,/G,/E,/G,/ C,/G,/E,/G,/ C,/G,/E,/G,/ C,/G,/E,/G,/ | %254
 D,/G,/F,/G,/ D,/G,/F,/G,/ D,/G,/F,/G,/ D,/G,/F,/G,/ | %255
 E,/G,/E,/G,/ E,/G,/E,/G,/ E,/G,/E,/G,/ E,/G,/E,/G,/ | %256
 ^B,,/G,/B,,/G,/ B,,/G,/B,,/G,/ B,,/G,/B,,/G,/ B,,/G,/B,,/G,/ | %257
 =B,,/G,/C,/G,/ B,,/G,/C,/G,/ A,,/F,/C,/F,/ A,,/F,/C,/F,/ | %258
 A,,/F,/B,,/F,/ G,,/E,/B,,/E,/ G,,/E,/B,,/E,/ G,,/E,/B,,/E,/ | %259
 =G,,/E,/A,,/E,/ G,,/E,/A,,/E,/ F,,/=D,/A,,/D,/ F,,/D,/A,,/D,/ | %260
 F,,/^D,/G,,/D,/ E,,/C,/G,,/C,/ E,,/C,/G,,/C,/ E,,/C,/G,,/C,/ | [F,,A,,=D,F,]4- [F,,A,,D,F,]2 z2 | %262
 .[F,A,=D]2 z2 .[F,A,D]2 z2 | [F,A,=D]2 [F,A,D]2 [F,A,D]2 [F,A,D]2 | %264
 G,/E/C/E/ G,/E/C/E/ G,/F/^B,/F/ G,/F/B,/F/ | .[A,CE]2 [F,,,A,,,=D,,F,,]2- [F,,,A,,,D,,F,,]2 z2 | %266
 z2 .[F,,A,,=D,]2 z2 .[F,,A,,D,]2 | z [F,,A,,=D,] z [F,,A,,D,] z [F,,A,,D,] z [F,,A,,D,] | %268
 [F,,A,,=D,]2 z2 z4 | F,,/=D,/A,,/D,/ F,,/D,/A,,/D,/ ^^F,,/E,/^A,,/E,/ F,,/E,/A,,/E,/ | %270
 G,,/E,/C,/E,/ G,,/E,/C,/E,/ G,,,/G,,/^^F,,/G,,/ F,,/G,,/F,,/G,,/ | C,, .C,.C,.C, .C,.C,.D,.E, | %272
 .[G,,F,] .[F,G,].[F,G,].[F,G,] .[F,G,].[F,G,].[E,G,].[D,G,] | .[C,,C,] .C,.C,.C, .C,.C,.D,.E, | %274
 .[G,,F,] .[F,G,].[F,G,].[F,G,] .[F,G,].[F,G,].[E,G,].[D,G,] | %275
 .[C,,C,] .[C,E,]([C,E,][E,G,]) .F,, .[C,F,]([C,F,][F,A,]) | %276
 .G,, .[C,E,]([C,E,][E,G,]) .G,, .[^B,,D,]([B,,D,][D,G,]) | %277
 .[C,,C,] .[C,G,].[C,G,].[C,G,] .[C,G,].[C,G,].[D,G,].[E,G,] | %278
 .[G,,F,G,] .[G,F].[G,F].[G,F] .[G,F].[G,F].[G,E].[G,D] | %279
 .[C,,C,] .[C,G,].[C,G,].[C,G,] .[C,G,].[C,G,].[D,G,].[E,G,] | %280
 .[G,,F,G,] .[G,F].[G,F].[G,F] .[G,F].[G,F].[G,E].[G,D] | %281
 .[C,,C,][K:treble] .[CE]([CE][EG])[K:bass] .F,[K:treble] .[CF]([CF][FA]) | %282
[K:bass] .G,[K:treble] .[CE]([CE][EG])[K:bass] .F,[K:treble] .[^B,D]([B,D][DG]) | %283
[K:bass] .E, .[G,C]([G,C][CE]) .F,, .[F,A,]([F,A,][A,=D]) | %284
 .G,, .[E,G,]([E,G,][G,C]) .G,, .[^D,F,]([D,F,][F,^B,]) | %285
 (C,,/C,/G,,/C,/ C,,/C,/G,,/C,/ C,,/C,/G,,/C,/ C,,/C,/G,,/C,/ | %286
 C,,/)D,/G,,/D,/ C,,/D,/G,,/D,/ C,,/D,/G,,/D,/ C,,/D,/G,,/D,/ | %287
 C,,/!-)!C,/G,,/C,/ C,,/C,/G,,/C,/ C,,/C,/G,,/C,/ C,,/C,/G,,/C,/ | %288
 C,,/D,/G,,/D,/ C,,/D,/G,,/D,/ C,,/D,/G,,/D,/ C,,/D,/G,,/D,/ | %289
 C,,/C,/G,,/C,/ C,,/C,/G,,/C,/ C,,/D,/G,,/D,/ C,,/D,/G,,/D,/ | %290
 C,,/C,/G,,/C,/ C,,/C,/G,,/C,/ C,,/D,/G,,/D,/ C,,/D,/G,,/D,/ | %291
 (C,,/C,/G,,/C,/ C,,/C,/G,,/C,/ C,,/C,/G,,/C,/ C,,/C,/G,,/C,/ | %292
 B,,,/B,,/C,,/B,,/ B,,,/B,,/C,,/B,,/ B,,,/B,,/C,,/B,,/ B,,,/B,,/C,,/B,,/ | %293
 .[A,,,A,,]).F,,.A,,,.F,, .A,,,.F,,.A,,,.F,, | %294
 .A,,,.F,,.A,,,.F,, .A,,,.F,,!ped!.[A,,,A,,].F,,!ped-up! | .G,,,.E,,.G,,,.E,, .G,,,.E,,.G,,,.E,, | %296
 .G,,,.E,,.G,,,.E,, .G,,,.E,,!ped!.[G,,,G,,].E,,!ped-up! | %297
!ped! ^^F,,,2- F,,, F,,,/4-^A,,,/4-C,,/4-E,,/4- [F,,,A,,,C,,E,,^^F,,]2- [F,,,A,,,C,,E,,F,,] F,,/4-^A,,/4C,/4-E,/4-!ped-up! | %298
 [F,,A,,C,E,^^F,]2 !fermata![^^F,^A,CE]6 | %299
!ped! ^F,,,2- F,,, F,,,/4-=A,,,/4-^C,,/4-D,,/4- [F,,,A,,,C,,D,,F,,]2- [F,,,A,,,C,,D,,F,,] F,,/4-A,,/4-^B,,/4-D,/4-!ped-up! | %300
 [F,,A,,B,,D,F,]2 !fermata![F,^A,B,D]6 | .C,2 (G,4 E,>C, | C,2 ^B,,2- B,,)(B,,G,>B,, | %303
 D,2 C,2- C,)(C,G,>C, | E,2 D,2- D,)(D,G,>D, | %305
 E,/)G,/E,/G,/ E,/G,/E,/G,/ E,/G,/E,/G,/ E,/G,/E,/G,/ | %306
 F,/G,/F,/G,/ F,/G,/F,/G,/ F,/G,/F,/G,/ F,/G,/F,/G,/ | %307
 E,/G,/E,/G,/ E,/G,/E,/G,/ E,/G,/E,/G,/ E,/G,/E,/G,/ | %308
 ^B,,/G,/B,,/G,/ B,,/G,/B,,/G,/ B,,/G,/B,,/G,/ B,,/G,/B,,/G,/ | !//-!C,2 G,2 !//-!=B,,2 C,2 | %310
 !//-!A,,2 C,2 !//-!^E,,2 C,2 | [F,,,C,,F,,]8- | [F,,,C,,F,,]8 | [F,,,=D,,F,,]8- | [F,,,=D,,F,,]8 | %315
 [^^F,,,C,,^^F,,]8- | [F,,,C,,F,,]8 | [G,,,C,,G,,]8- | [G,,,C,,G,,]8 | x8 | z8 | %321
 [G,^B,F]8 !fermata!x2 !fermata!x2 !fermata!x2 !fermata!x2 | ^^F,,,8 | G,,,8 | %324
 C,,/C,/G,,/C,/ C,,/C,/G,,/C,/ C,,/C,/G,,/C,/ C,,/C,/G,,/C,/ | %325
 C,,/D,/G,,/D,/ C,,/D,/G,,/D,/ C,,/D,/G,,/D,/ C,,/D,/G,,/D,/ | %326
 C,,/C,/G,,/C,/ C,,/C,/G,,/C,/ C,,/C,/G,,/C,/ C,,/C,/G,,/C,/ | %327
 C,,/D,/G,,/D,/ C,,/D,/G,,/D,/ C,,/D,/G,,/D,/ C,,/D,/G,,/D,/ | %328
 C,,/C,/G,,/C,/ C,,/C,/G,,/C,/ C,,/D,/G,,/D,/ C,,/D,/G,,/D,/ | %329
 C,,/C,/G,,/C,/ C,,/C,/G,,/C,/ C,,/D,/G,,/D,/ C,,/D,/G,,/D,/ | %330
 .[C,,G,,C,]/ (E,/G,/C/ E/G,/C/E/[K:treble] G/C/E/G/ c/E/G/c/ | %331
 e/c/G/E/ c/G/E/C/[K:bass] G/E/C/G,/ E/C/G,/E,/ | %332
 C/G,/E,/C,/ G,/E,/C,/G,,/ E,/C,/G,,/E,,/ C,/G,,/E,,/G,,/ | C,,2) z2 .[C,,E,,G,,C,]2 z2 | %334
 .[C,,E,,G,,C,]2 z2 z4 |] %335
V:3
 x8 | x8 | x8 | x8 |[I:staff +1] (3E,G,C[I:staff -1] (3G,CE (3G,CE (3G,CE | %5
 (3G,DF (3G,DF (3G,DF (3G,DF | (3G,CE (3G,CE (3A,CF (3A,CF | (3G,B,E (3G,B,E (3A,B,D (3A,B,D | %8
 (3G,B,E (3G,B,E (3G,B,E (3G,B,E | (3=G,B,E (3G,B,E (3G,B,E (3G,B,E | %10
 (3=G,B,=F (3G,B,F (3G,B,F (3G,B,F | (3=G,=CE (3G,B,E (3G,^CE[I:staff +1] (3^F,^CE | %12
 (3F,B,=D (3F,B,D (3=G,B,C (3E,B,C | (3F,B,=D (3F,B,D (3F,^A,C (3F,A,C | %14
[I:staff -1] (3B,=DF (3B,DF (3B,^DF (3B,DF | (3B,E=G (3B,EG!mp!!>(! (3B,EG (3B,EG!>)! | %16
 (3B,^DF (3B,DF (3B,DF (3B,DF | (3B,E=G (3B,EG!mp!!>(! (3B,EG (3B,EG!>)! | %18
 (3B,DF (3B,DF (3B,=D^E (3B,DE | (3B,C^G (3B,CG (3=A,CF (3A,CF | %20
[I:staff +1] (3=G,B,=D (3G,B,D (3F,A,^D (3F,A,D | (3C,F,A, (3C,F,A, (3C,F,G, (3C,^E,G, | %22
 (3F,A,C (3A,C[I:staff -1]F (3CFA (3CFA | (3CGB (3CGB (3CGB (3CGB | (3CFA (3CFA (3^B,FA (3CFA | %25
 (3DFG (3DFG (3DFG (3DFG | (3EGc (3EGc (3DFA (3CE^A | x2 (3G^B,D (3AB,D (3FB,D | %28
 x2 (3G,^B,D (3A,B,D (3F,B,D | x2 (3cEG (3eEG (3cEG | x2[I:staff +1] (3CE,G, (3EE,G, (3CE,G, | x8 | %32
 x8 | x8 | x8 | x8 | x4[I:staff -1][K:bass] x2 C,2 | ^B,,4 D,2 C,2 | ^B,,4 (=D,2 C,2 | ^B,,4) x4 | %40
 x8 | (3E,G,C[K:treble] (3G,CE (3G,CE (3G,CE | (3G,DF (3G,DF (3G,DF (3G,DF | %43
 (3G,CE (3G,CE (3A,CF (3A,CF | (3G,B,E (3G,B,E (3A,B,D (3A,B,D | (3G,B,E (3B,EG (3B,EG (3B,EG | %46
 (3B,FA (3B,FA (3B,FA (3B,FA | (3B,EG (3B,EG (3^B,FG (3CEG | (3DFG (3DFG (3EGc (3EGc | %49
 (3=DFA (3DFA (3^B,FG (3B,FG | (3CEG (3CEG (3C^EG (3CEG | (3CFA (3CFA!mf!!>(! (3CFA (3CFA!>)! | %52
 (3C^EG (3CEG (3CEG (3CEG | (3CFA (3CFA!mp!!>(! (3CFA (3CFA!>)! | (3C^EG (3CEG (3CFA (3CFA | %55
 (3=B,FA (3B,FA (3B,FA (3B,EG | (3A,EG (3A,DF (3G,DF (3G,CE | %57
[I:staff +1] (3F,CD (3F,CD (3G,CD (3A,CD | (3G,CE (3G,CE (3F,^B,D (3F,B,D | %59
 (3E,G,C[I:staff -1] (3G,CE (3G,CE (3G,CE | x8 | x8 | (3^BdA (3BFA[K:bass] (3DFA,- (3A,G,F, | %63
 x2/3[K:treble] x22/3 | (3^BdA (3BFA[K:bass] (3DFA,- (3A,G,F, | x8 | x8 | x8 | x8 |] %69
[K:Db][M:3/4][K:treble] x2 | x6 | x6 | x6 | x6 | x6 | x6 | x6 | x6 | x6 | E2 z2 .F2 | .A2 z2 =G2 | %81
 x6 | x6 | A2 z2 .B2 | .d2 z2 c2 | x4 |: x2 | x6 | E4 E2 | E4 E2 | D4 D2 | G4 F2 | G4 E2- | %93
 E2 D2 B,2 | x6 | x6 | x6 | .A2 c2 =G2 | x6 | x6 | x6 | x6 | x6 | x6 | x6 | _G,6 | x4 :: x2 | x6 | %109
 x6 | x6 | x6 | x6 | x6 | x6 | x4 :: x2 | x6 | x6 | x6 | x6 | x6 | x6 | x6 | x6 | x4[K:bass] x2 | %126
 x6 | x6 | x6 | x6 | x6 | x6 | x4 :|[K:E][M:4/4][K:bass] x6[K:treble] x2 |: x8 | %135
[K:bass] x6[K:treble] x2 | x8 |[K:bass] x4[K:treble] x4 | x8 |[K:bass] x2[K:treble] x6 | %140
[K:bass] x2[K:treble] x6 | x8 | x8 | x8 | x8 | x8 | x8 |[K:bass] x6[K:treble] x2 | x8 | %149
[K:bass] x4[K:treble] x4 | x8 |[K:bass] x4[K:treble] x4 | x8 | x8 | x8 | x8 | x8 | x8 | x8 | x8 | %160
 x8 | x8 | x8 | x8 | x8 | x8 | x8 | x8 | x8 | x8 | x8 | x8 | x8 | x8 | x8 | x8 | x8 | x8 | x8 | %179
 x8 | x8 | x8 | x8 | x8 | x8 | x8 | x8 | x8 | x8 | x8 | x8 | x8 | x8 | x8 | x8 | x8 | x8 |1 %197
[K:bass] x6[K:treble] x2 :|2[K:bass] x4[K:treble] x4 || x8 |[K:bass] x4[K:treble] x4 | x8 | %202
[K:bass] x2[K:treble] x6 |[K:bass] x2[K:treble] x6 | x8 | x8 | x8 | x8 | x8 | x8 | x8 | x8 | x8 | %213
 x8 | x8 | x8 | x8 | x8 | x8 | x8 | x8 |[I:staff +1] [A,C]4 [G,B,]4 | [F,A,]4 [E,G,]4 | x8 | x8 | %225
 x8 | x8 | x8 | x8 | x8 | x8 | x8 | x8 | x8 | x8 |[I:staff -1][K:bass] x6[K:treble] x2 | x8 | %237
[K:bass] x6[K:treble] x2 | x8 |[K:bass] x4[K:treble] x4 | x8 |[K:bass] x2[K:treble] x6 | %242
[K:bass] x2[K:treble] x6 | x8 | x8 | x8 | x8 | x8 | x8 | x8 | x8 | x8 | x8 | x8 | x8 | x8 | x8 | %257
 x8 | x8 | x8 | x8 | x8 | x8 | x8 | x8 | x2[K:bass] x4[K:treble] x2 | x8 | x8 | x8 | x8 | %270
 x4[K:bass] x4 | x[K:treble] x7 | x8 | x8 | x8 | x8 | x8 | x8 | x8 | x8 | x8 | x8 | x8 | x8 | x8 | %285
 x8 | x8 | x8 | x8 | x8 | x8 |[K:bass] x8 | x8 | x4[K:treble] x4 | x8 |[K:bass] x4[K:treble] x4 | %296
 x8 |[K:bass] x5[K:treble] x3 | x8 |[K:bass] x5[K:treble] x3 | x8 |[K:treble] x8 | x8 | x8 | x8 | %305
 x8 | x8 | x8 | x8 | x8 | x8 | x8 | x8 | x8 | x8 | x8 | x8 | x8 | x8 | x8 | x8 | x16 | x8 | x8 | %324
 x8 | x8 | x8 | x8 | x8 | x8 | x8 | x8 | x8 | x8 | x8 |] %335
V:4
 x8 | x8 | x8 | x8 | x8 | x8 | x8 | x8 | x8 | x8 | x8 | x8 | x8 | x8 | x8 | x8 | x8 | x8 | x8 | %19
 x8 | x8 | x8 | x8 | x8 | x8 | x8 | x8 | x8 | x8 | x8 | x8 | x8 | x8 | x8 | x8 | x8 | x8 | x8 | %38
 x8 | x8 | x8 | x8 | x8 | x8 | x8 | x8 | x8 | x8 | x8 | x8 | x8 | x8 | x8 | x8 | x8 | x8 | x8 | %57
 x8 | x8 | C,,8 | ^B,,,8 | C,,8 | G,,,8 | C,,8 | G,,,8 | C,,8- | C,,8 | x8 | x8 |] %69
[K:Db][M:3/4] x2 | x6 | x6 | x6 | x4[K:treble] x2 | x6 | x6 | x6 | x4[K:bass] x2 | x6 | x6 | x6 | %81
 x6 | x6 | x6 | x6 | x4 |: x2 | x6 | x6 | x6 | x6 | x6 | x6 | D,4 G,,2 | A,,4 x2 | x6 | x6 | x6 | %98
 x6 | x6 | x6 | x6 | x6 | x6 | x6 | x6 | x4 :: x2 | (D,,6 | E,,6 | G,,6 | F,,6) | (D,,6 | E,,6 | %114
 A,,,4 A,,2 | D,,4) :: x2 | x6 | x6 | x6 | x6 | (B,,6 | A,,6 | D,,2 F,,2 A,,2 | G,,6) | (B,,6 | %126
 A,,6 | =G,,6 | A,,6) | B,,6 | A,,6- | x6 | x4 :|[K:E][M:4/4] x8 |: x8 | x8 | x8 | x8 | x8 | x8 | %140
 x8 | x G,3- G,4- | G,8 | G,8- | G,8 | x8 | x8 | x8 | x8 | x8 | x8 | x8 | x8 | x8 | x8 | x8 | x8 | %157
 x8 | x8 | x8 | x8 | x8 | x8 | x8 | x8 | x8 |[K:treble] x8 | x8 | x8 | x2[K:bass] x6 | x8 | x8 | %172
 x8 | x8 | x8 | x8 | x8 | x8 | x8 | x8 | x8 | x8 | x8 | x8 | x8 | x8 | x8 | %187
 x[K:treble] x3[K:bass] x[K:treble] x3 |[K:bass] x[K:treble] x3[K:bass] x[K:treble] x3 | %189
[K:bass] x8 | x8 | x8 | x8 | x8 | x8 | x8 | x8 |1 x8 :|2 x8 || x8 | x8 | x8 | x8 | x8 | x8 | x8 | %206
 x8 | x8 | x8 | x8 | x8 | x8 | x8 | x8 | x8 | x8 | x8 | x8 | x8 | x8 | x8 | x8 | x8 | x8 | x8 | %225
 x8 | x8 | x8 | x8 | x8 | x8 | x8 | x8 | x8 | x8 | x8 | x8 | x8 | x8 | x8 | x8 | x8 | x8 | %243
 x G,3- G,4- | G,8 | G,8- | G,8 | x8 | x8 | x8 | x8 | x8 | x8 | x8 | x8 | x8 | x8 | x8 | x8 | x8 | %260
 x8 | x8 | x8 | x8 | x8 | x8 | x8 | x8 | x8 | x8 | x8 | x8 | x8 | x8 | x8 | x8 | x8 | x8 | x8 | %279
 x8 | x8 | x[K:treble] x3[K:bass] x[K:treble] x3 |[K:bass] x[K:treble] x3[K:bass] x[K:treble] x3 | %283
[K:bass] x8 | x8 | x8 | x8 | x8 | x8 | x8 | x8 | x8 | x8 | x8 | x8 | x8 | x8 | x8 | x8 | x8 | x8 | %301
 x8 | x8 | x8 | x8 | x8 | x8 | x8 | x8 | x8 | x8 | x8 | x8 | x8 | x8 | x8 | x8 | x8 | x8 | x8 | %320
 x8 | x16 | x8 | x8 | x8 | x8 | x8 | x8 | x8 | x8 | x4[K:treble] x4 | x4[K:bass] x4 | x8 | x8 | %334
 x8 |] %335

